X: 560
T: Fiddler's Dream
B: jims roots
M:2/4
L:1/16
Q: 1/4=100
K:G
V:1 
(A_B |"G" =B)GFE DCB,A, | G,A,B,C DEGA | Bdef gfga | "D"bgag edga |
"G"c'gag edef | "C"gedB AGEF | "D"GEDC B,DGA | BGAF "G"G2 :|
V:K:D 
"D"[F3A][FA] [F2A][F2A] | Adde fecA | "A"cded cB (3ABc | "D"dcdA BAFG |
V:F3A 
V:FA 
 [F2A][F2A] | Adde fecA | "A"cdef gecA | "D"[F4d] [F2d] :|
% abcbook-tune_id 6298c25dda4dfd4afc7aa6f2


% abcbook-boost 0
% abcbook-tablature 
% abcbook-transpose 
% abcbook-lastupdated 1654178397950
% abcbook-soundfonts 
% abcbook-repeats 1


